Breeze Round Light/actions/32/document-edit-sign-encrypt.svg

<!DOCTYPE svg>
<svg version="1.1" xmlns="http://www.w3.org/2000/svg" viewBox="0 0 32 32">
    <defs>
<style type="text/css" id="current-color-scheme">.ColorScheme-Text {color:#fcfcfc;}</style>
    </defs>
    <path class="ColorScheme-Text" style="fill:currentColor; fill-opacity:1; stroke:none" d="m 10,4 c 0,0 -4,0 -4,4 0,4 0,8 0,8 H 7 C 7,16 7,11 7,8 7,5 10,5 10,5 h 8 v 7 h 7 v 4 h 1 V 11 L 19,4 Z m 11,12 c -1.657,0 -3,1.343 -3,3 v 3 c 0,0 -2,0 -2,2 0,2 0,0 0,2 0,2 2,2 2,2 l 6,0 c 0,0 2,0 2,-2 0,-2 0,0 0,-2 0,-2 -2,-2 -2,-2 v -3 c 0,-1.657 -1.343,-3 -3,-3 z M 9,17 v 2 h 2 v -2 z m 12,0 c 1.105,0 2,0.895 2,2 v 3 h -4 v -3 c 0,-1.105 0.895,-2 2,-2 z M 6,20 v 2 h 2 v -2 z m 6,0 v 2 h 2 v -2 z m -3,3 v 2 h 2 v -2 z m -3,3 v 2 h 2 v -2 z m 6,0 v 2 h 2 v -2 z"/>
</svg>

<svg xmlns="http://www.w3.org/2000/svg" viewBox="0 0 32 32">
  <defs
     id="defs3051">
    <style
       type="text/css"
       id="current-color-scheme">
      .ColorScheme-Text {
        color:#232629;
      }
      </style>
  </defs>
  <path
     style="fill:currentColor;fill-opacity:1;stroke:none" 
     d="M 6 4 L 6 16 L 7 16 L 7 5 L 25 5 L 25 16 L 26 16 L 26 4 L 6 4 z M 21 16 C 19.343 16 18 17.343 18 19 L 18 22 L 16 22 L 16 28 L 26 28 L 26 22 L 24 22 L 24 19 C 24 17.343 22.657 16 21 16 z M 9 17 L 9 19 L 11 19 L 11 17 L 9 17 z M 21 17 C 22.105 17 23 17.895 23 19 L 23 22 L 19 22 L 19 19 C 19 17.895 19.895 17 21 17 z M 6 20 L 6 22 L 8 22 L 8 20 L 6 20 z M 12 20 L 12 22 L 14 22 L 14 20 L 12 20 z M 9 23 L 9 25 L 11 25 L 11 23 L 9 23 z M 6 26 L 6 28 L 8 28 L 8 26 L 6 26 z M 12 26 L 12 28 L 14 28 L 14 26 L 12 26 z "
     id="path22" 
     class="ColorScheme-Text"
     />
</svg>
